static/img/supporters/daocloud.svg

<svg xmlns="http://www.w3.org/2000/svg" width="500" height="122" viewBox="0 24 500 122"><path fill="#0fd15d" d="M56.051 49.964 83.453 36.46 55.931 24.443 28.397 36.329ZM27.906 86.999l-1.378-22.262 20.009-10.016L18.26 40.714 0 48.718l2.372 21.399ZM109.478 69.985l2.624-21.267-18.512-8.004-28.026 14.007 20.262 10.016-1.63 22.262ZM83.453 97.639l-2.001 29.02 23.269-17.517 3.499-28.145ZM28.529 97.639 3.75 80.997l3.259 28.277 23.389 17.385ZM74.694 103.522l-18.523 12.509-18.764-12.509 1.881 29.775 16.763 12.509 16.511-12.509Z"/><path fill="#0f1011" d="M142.979 111.862V47.651h23.58c13.18 0 21.291 8.076 21.291 20.92v22.394c0 12.761-8.159 20.933-21.291 20.933Zm12.293-10.928h11.287c5.787 0 8.902-3.762 8.902-11.107V69.674c0-7.345-3.115-11.107-8.902-11.107h-11.287ZM245.052 82.614c0-11.982 7.62-19.362 20.009-19.362s19.914 7.344 19.914 19.362v10.784c.084 11.982-7.621 19.362-19.914 19.362-12.293 0-20.009-7.345-20.009-19.362Zm11.742 9.825c0 6.698 2.935 10.185 8.267 10.185 5.332 0 8.16-3.487 8.16-10.185v-8.818c0-6.698-2.936-10.185-8.16-10.185s-8.171 3.487-8.171 10.185ZM235.394 111.862h-10.1l-.683-4.553a18.502 18.502 0 0 1-13.564 5.523c-9.154 0-15.983-6.53-15.983-14.378 0-20.297 28.073-20.453 28.073-20.453 0-1.569-2.229-6.362-12.329-6.362-2.976.095-5.92.636-8.735 1.605l-2.277-6.302a38.55 38.55 0 0 1 15.876-3.75c12.425 0 19.686 5.188 19.686 17.05Zm-21.843-8.28a12.376 12.376 0 0 0 9.861-5.439V85.13c-1.905 0-16.355 1.199-16.355 12.222a5.992 5.992 0 0 0 6.458 6.254ZM316.139 113.156c-12.736 0-22.046-8.04-22.046-20.681V67.984c0-12.652 9.31-20.596 22.046-20.596 8.04 0 12.833 2.252 18.249 6.051l-4.697 8.495c-4.613-2.529-7.597-3.978-13.552-3.978-5.954 0-9.849 4.241-9.849 11.119v22.31c0 7.189 3.978 11.119 9.849 11.119 5.872 0 8.939-1.45 13.552-3.978l4.697 8.579c-5.416 3.798-10.209 6.051-18.249 6.051ZM342.164 111.862V44.129h11.562v67.733ZM363.839 83.105c0-11.826 7.501-19.063 19.698-19.063s19.602 7.201 19.602 19.063v10.664c.084 11.838-7.5 19.063-19.614 19.063s-19.698-7.189-19.698-19.063Zm11.574 9.586c0 6.602 2.888 10.029 8.124 10.029 5.236 0 8.04-3.427 8.04-10.029v-8.627c0-6.59-2.888-10.029-8.04-10.029-5.152 0-8.04 3.439-8.04 10.029ZM427.366 112.796c-10.783 0-14.282-6.506-14.282-18.428V64.917h11.622v28.361c0 6.686 1.354 9.585 5.872 9.585a10.111 10.111 0 0 0 8.71-5.379V64.917h11.659v46.945h-10.125l-.899-4.434a19.659 19.659 0 0 1-12.557 5.368ZM489.971 107.92a18.594 18.594 0 0 1-12.736 4.876c-10.568 0-16.08-7.189-16.08-19.063V82.255c0-11.982 5.332-18.249 15.72-18.249 3.935-.079 7.844.66 11.479 2.169V44.129H500v67.733h-9.478Zm-1.617-31.8a20.51 20.51 0 0 0-8.855-1.809c-4.433 0-6.865 2.708-6.865 8.854v9.586c0 6.602 1.797 10.028 7.045 10.028a9.346 9.346 0 0 0 8.675-4.792Z"/></svg>

<?xml version="1.0" encoding="UTF-8"?>
<svg width="500px" height="122px" viewBox="0 24 500 122" xmlns="http://www.w3.org/2000/svg" xmlns:xlink="http://www.w3.org/1999/xlink" version="1.1">
 <g id="Layer_3">
  <path id="路径" d="M56.051 49.964 L83.453 36.46 55.931 24.443 28.397 36.329 Z" fill="#0fd15d" fill-opacity="1" stroke="none"/>
  <path id="路径-1" d="M27.906 86.999 L26.528 64.737 46.537 54.721 18.26 40.714 -0 48.718 2.372 70.117 Z" fill="#0fd15d" fill-opacity="1" stroke="none"/>
  <path id="路径-2" d="M109.478 69.985 L112.102 48.718 93.59 40.714 65.564 54.721 85.826 64.737 84.196 86.999 Z" fill="#0fd15d" fill-opacity="1" stroke="none"/>
  <path id="路径-3" d="M83.453 97.639 L81.452 126.659 104.721 109.142 108.22 80.997 Z" fill="#0fd15d" fill-opacity="1" stroke="none"/>
  <path id="路径-4" d="M28.529 97.639 L3.75 80.997 7.009 109.274 30.398 126.659 Z" fill="#0fd15d" fill-opacity="1" stroke="none"/>
  <path id="路径-5" d="M74.694 103.522 L56.171 116.031 37.407 103.522 39.288 133.297 56.051 145.806 72.562 133.297 Z" fill="#0fd15d" fill-opacity="1" stroke="none"/>
  <path id="路径-6" d="M142.979 111.862 L142.979 47.651 166.559 47.651 C179.739 47.651 187.85 55.727 187.85 68.571 L187.85 90.965 C187.85 103.726 179.691 111.898 166.559 111.898 Z M155.272 100.934 L166.559 100.934 C172.346 100.934 175.461 97.172 175.461 89.827 L175.461 69.674 C175.461 62.329 172.346 58.567 166.559 58.567 L155.272 58.567 Z" fill="#0f1011" fill-opacity="1" stroke="none"/>
  <path id="路径-7" d="M245.052 82.614 C245.052 70.632 252.672 63.252 265.061 63.252 277.45 63.252 284.975 70.596 284.975 82.614 L284.975 93.398 C285.059 105.38 277.354 112.76 265.061 112.76 252.768 112.76 245.052 105.415 245.052 93.398 Z M256.794 92.439 C256.794 99.137 259.729 102.624 265.061 102.624 270.393 102.624 273.221 99.137 273.221 92.439 L273.221 83.621 C273.221 76.923 270.285 73.436 265.061 73.436 259.837 73.436 256.89 76.923 256.89 83.621 Z" fill="#0f1011" fill-opacity="1" stroke="none"/>
  <path id="路径-8" d="M235.394 111.862 L225.294 111.862 224.611 107.309 C221.042 110.937 216.136 112.935 211.047 112.832 201.893 112.832 195.064 106.302 195.064 98.454 195.064 78.157 223.137 78.001 223.137 78.001 223.137 76.432 220.908 71.639 210.808 71.639 207.832 71.734 204.888 72.275 202.073 73.244 L199.796 66.942 C204.76 64.574 210.173 63.295 215.672 63.192 228.097 63.192 235.358 68.38 235.358 80.242 Z M213.551 103.582 C217.521 103.456 221.188 101.433 223.412 98.143 L223.412 85.13 C221.507 85.13 207.057 86.329 207.057 97.352 206.976 99.07 207.638 100.741 208.874 101.938 210.11 103.135 211.8 103.742 213.515 103.606 Z" fill="#0f1011" fill-opacity="1" stroke="none"/>
  <path id="路径-9" d="M316.139 113.156 C303.403 113.156 294.093 105.116 294.093 92.475 L294.093 67.984 C294.093 55.332 303.403 47.388 316.139 47.388 324.179 47.388 328.972 49.64 334.388 53.439 L329.691 61.934 C325.078 59.405 322.094 57.956 316.139 57.956 310.185 57.956 306.29 62.197 306.29 69.075 L306.29 91.385 C306.29 98.574 310.268 102.504 316.139 102.504 322.011 102.504 325.078 101.054 329.691 98.526 L334.388 107.105 C328.972 110.903 324.179 113.156 316.139 113.156 Z" fill="#0f1011" fill-opacity="1" stroke="none"/>
  <path id="路径-10" d="M342.164 111.862 L342.164 44.129 353.726 44.129 353.726 111.862 Z" fill="#0f1011" fill-opacity="1" stroke="none"/>
  <path id="路径-11" d="M363.839 83.105 C363.839 71.279 371.34 64.042 383.537 64.042 395.734 64.042 403.139 71.243 403.139 83.105 L403.139 93.769 C403.223 105.607 395.639 112.832 383.525 112.832 371.411 112.832 363.827 105.643 363.827 93.769 Z M375.413 92.691 C375.413 99.293 378.301 102.72 383.537 102.72 388.773 102.72 391.577 99.293 391.577 92.691 L391.577 84.064 C391.577 77.474 388.689 74.035 383.537 74.035 378.385 74.035 375.497 77.474 375.497 84.064 Z" fill="#0f1011" fill-opacity="1" stroke="none"/>
  <path id="路径-12" d="M427.366 112.796 C416.583 112.796 413.084 106.29 413.084 94.368 L413.084 64.917 424.706 64.917 424.706 93.278 C424.706 99.964 426.06 102.863 430.578 102.863 434.241 102.781 437.574 100.723 439.288 97.484 L439.288 64.917 450.947 64.917 450.947 111.862 440.822 111.862 439.923 107.428 C436.513 110.66 432.059 112.565 427.366 112.796 Z" fill="#0f1011" fill-opacity="1" stroke="none"/>
  <path id="路径-13" d="M489.971 107.92 C486.496 111.1 481.945 112.842 477.235 112.796 466.667 112.796 461.155 105.607 461.155 93.733 L461.155 82.255 C461.155 70.273 466.487 64.006 476.875 64.006 480.81 63.927 484.719 64.666 488.354 66.175 L488.354 44.129 500 44.129 500 111.862 490.522 111.862 Z M488.354 76.12 C485.573 74.866 482.548 74.248 479.499 74.311 475.066 74.311 472.634 77.019 472.634 83.165 L472.634 92.751 C472.634 99.353 474.431 102.779 479.679 102.779 483.249 102.973 486.617 101.112 488.354 97.987 Z" fill="#0f1011" fill-opacity="1" stroke="none"/>
 </g>
</svg>
